images/icons/social/twitter.svg

<svg width="22" height="18" viewBox="0 0 22 18" fill="none" xmlns="http://www.w3.org/2000/svg">
  <path
    d="M21.8 2.80737C21.0055 3.16069 20.0018 3.49116 19.1 3.60015C20.0158 3.05698 21.4695 1.92495 21.8 0.900146C20.9439 1.40288 19.3953 1.94077 18.3863 2.13413C17.5795 1.27983 16.4299 0.900146 15.1555 0.900146C12.7068 0.900146 11 2.97436 11 5.40015V7.20014C7.4 7.20014 3.88964 4.45796 1.70644 1.80015C1.32148 2.44878 1.10527 3.20815 1.10527 4.01147C1.10527 5.648 2.60996 7.30913 3.8 8.10014C3.07402 8.07729 1.69765 7.52358 1.1 7.20014C1.1 7.21421 1.1 7.23179 1.1 7.25112C1.1 9.38159 2.59414 10.8283 4.62089 11.2308C4.25175 11.3328 3.8 11.7001 2.06504 11.7001C2.62754 13.4421 5.46113 14.3615 7.4 14.4001C5.883 15.5761 3.17773 16.2001 1.1 16.2001C0.741403 16.2001 0.546286 16.2195 0.199997 16.179C2.15996 17.4218 4.89863 18.0001 7.4 18.0001C15.551 18.0001 20 11.774 20 5.96792C20 5.77632 19.993 5.13647 19.9842 4.95015C20.8543 4.33667 21.2076 3.69331 21.8 2.80737Z"
    fill="white"/>
</svg>

<svg width="22" height="18" fill="none" xmlns="http://www.w3.org/2000/svg"><path d="M21.8 2.8c-.8.36-1.8.7-2.7.8.92-.54 2.37-1.68 2.7-2.7-.86.5-2.4 1.04-3.41 1.23A4.31 4.31 0 0 0 15.16.9C12.7.9 11 2.97 11 5.4v1.8c-3.6 0-7.11-2.74-9.3-5.4-.38.65-.6 1.4-.6 2.21 0 1.64 1.51 3.3 2.7 4.09a8.35 8.35 0 0 1-2.7-.9v.05c0 2.13 1.5 3.58 3.52 3.98-.37.1-.82.47-2.55.47.56 1.74 3.4 2.66 5.33 2.7-1.52 1.18-4.22 1.8-6.3 1.8-.36 0-.55.02-.9-.02C2.16 17.42 4.9 18 7.4 18 15.55 18 20 11.77 20 5.97c0-.2 0-.83-.02-1.02.87-.61 1.23-1.26 1.82-2.14Z" fill="#fff"/></svg>
